badges/moonfm-dark.svg

<svg width="124" height="40" viewBox="0 0 124 40" fill="none" xmlns="http://www.w3.org/2000/svg">
<rect x="0.5" y="0.5" width="123" height="39" rx="4.5" fill="black"/>
<g clip-path="url(#clip0_101_7998)">
<path d="M10.8313 29.1688C9.04766 27.3875 8.38672 24.4836 8.38672 20C8.38672 15.5164 9.04766 12.6125 10.8313 10.8313C12.6148 9.05 15.5164 8.38672 20 8.38672C24.4836 8.38672 27.3875 9.04766 29.1688 10.8313C30.95 12.6148 31.6133 15.5164 31.6133 20C31.6133 24.4836 30.9523 27.3875 29.1688 29.1688C27.3852 30.95 24.4836 31.6133 20 31.6133C15.5164 31.6133 12.6125 30.9523 10.8313 29.1688Z" fill="white"/>
<path d="M25.3367 26.6023H14.689C13.3133 26.6023 12.6312 25.0835 13.6109 24.2046L18.9664 19.3976L24.2422 14.5202C25.2078 13.6273 26.8742 14.2507 26.8742 15.5023V25.203C26.8742 25.9765 26.1875 26.6023 25.3367 26.6023Z" fill="#FE1A86"/>
<path opacity="0.85" d="M25.4141 26.6328H14.6094C13.7867 26.6328 13.1188 26.0235 13.1188 25.2735V15.4321C13.1188 14.2157 14.736 13.6133 15.6735 14.4782L21.0266 19.4282L26.4617 24.3055C27.411 25.1586 26.7477 26.6328 25.4141 26.6328Z" fill="#0000DA"/>
</g>
<path d="M39.7486 14.5V8.31818H40.4972V13.8359H43.3707V14.5H39.7486ZM44.4332 14.5V9.86364H45.1456V14.5H44.4332ZM44.7955 9.09091C44.6566 9.09091 44.5369 9.04362 44.4363 8.94904C44.3377 8.85446 44.2884 8.74077 44.2884 8.60795C44.2884 8.47514 44.3377 8.36145 44.4363 8.26687C44.5369 8.17229 44.6566 8.125 44.7955 8.125C44.9343 8.125 45.053 8.17229 45.1516 8.26687C45.2522 8.36145 45.3026 8.47514 45.3026 8.60795C45.3026 8.74077 45.2522 8.85446 45.1516 8.94904C45.053 9.04362 44.9343 9.09091 44.7955 9.09091ZM49.7344 10.902L49.0945 11.0831C49.0543 10.9764 48.9949 10.8728 48.9164 10.7722C48.8399 10.6696 48.7353 10.585 48.6025 10.5186C48.4697 10.4522 48.2996 10.419 48.0924 10.419C47.8086 10.419 47.5722 10.4844 47.383 10.6152C47.1959 10.744 47.1023 10.908 47.1023 11.1072C47.1023 11.2843 47.1667 11.4242 47.2955 11.5268C47.4243 11.6294 47.6255 11.715 47.8992 11.7834L48.5874 11.9524C49.0019 12.053 49.3108 12.207 49.5141 12.4142C49.7173 12.6195 49.8189 12.8841 49.8189 13.2081C49.8189 13.4737 49.7425 13.7112 49.5895 13.9205C49.4386 14.1297 49.2273 14.2947 48.9557 14.4155C48.684 14.5362 48.3681 14.5966 48.0079 14.5966C47.535 14.5966 47.1436 14.494 46.8337 14.2887C46.5238 14.0835 46.3276 13.7836 46.2451 13.3892L46.9212 13.2202C46.9856 13.4697 47.1073 13.6568 47.2864 13.7816C47.4676 13.9064 47.704 13.9688 47.9958 13.9688C48.3278 13.9688 48.5914 13.8983 48.7866 13.7575C48.9838 13.6146 49.0824 13.4435 49.0824 13.2443C49.0824 13.0833 49.0261 12.9485 48.9134 12.8398C48.8007 12.7292 48.6276 12.6467 48.3942 12.5923L47.6215 12.4112C47.1969 12.3106 46.885 12.1547 46.6858 11.9434C46.4886 11.7301 46.39 11.4634 46.39 11.1435C46.39 10.8819 46.4634 10.6504 46.6103 10.4492C46.7592 10.248 46.9615 10.09 47.217 9.97532C47.4746 9.86062 47.7664 9.80327 48.0924 9.80327C48.5512 9.80327 48.9114 9.90388 49.173 10.1051C49.4366 10.3063 49.6237 10.572 49.7344 10.902ZM52.9076 9.86364V10.4673H50.5049V9.86364H52.9076ZM51.2052 8.75284H51.9175V13.1719C51.9175 13.3731 51.9467 13.524 52.0051 13.6246C52.0654 13.7232 52.1419 13.7897 52.2345 13.8239C52.329 13.8561 52.4287 13.8722 52.5333 13.8722C52.6118 13.8722 52.6762 13.8681 52.7265 13.8601C52.7768 13.85 52.817 13.842 52.8472 13.8359L52.9921 14.4759C52.9438 14.494 52.8764 14.5121 52.7899 14.5302C52.7033 14.5503 52.5937 14.5604 52.4608 14.5604C52.2596 14.5604 52.0624 14.5171 51.8692 14.4306C51.6781 14.344 51.5191 14.2122 51.3923 14.0352C51.2675 13.8581 51.2052 13.6347 51.2052 13.3651V8.75284ZM55.8732 14.5966C55.4265 14.5966 55.0411 14.498 54.7172 14.3008C54.3952 14.1016 54.1467 13.8239 53.9716 13.4677C53.7985 13.1095 53.712 12.6929 53.712 12.218C53.712 11.7431 53.7985 11.3246 53.9716 10.9624C54.1467 10.5981 54.3902 10.3144 54.7021 10.1112C55.016 9.90589 55.3822 9.80327 55.8008 9.80327C56.0423 9.80327 56.2807 9.84351 56.5162 9.92401C56.7516 10.0045 56.9659 10.1353 57.1591 10.3164C57.3523 10.4955 57.5062 10.733 57.6209 11.0288C57.7356 11.3246 57.793 11.6888 57.793 12.1214V12.4233H54.2191V11.8075H57.0685C57.0685 11.5459 57.0162 11.3125 56.9116 11.1072C56.8089 10.902 56.6621 10.74 56.4709 10.6213C56.2817 10.5025 56.0584 10.4432 55.8008 10.4432C55.517 10.4432 55.2715 10.5136 55.0643 10.6545C54.859 10.7933 54.7011 10.9744 54.5904 11.1978C54.4797 11.4212 54.4244 11.6606 54.4244 11.9162V12.3267C54.4244 12.6768 54.4847 12.9737 54.6055 13.2172C54.7282 13.4586 54.8983 13.6428 55.1156 13.7695C55.3329 13.8943 55.5855 13.9567 55.8732 13.9567C56.0604 13.9567 56.2294 13.9305 56.3803 13.8782C56.5333 13.8239 56.6651 13.7434 56.7757 13.6367C56.8864 13.5281 56.9719 13.3932 57.0323 13.2322L57.7205 13.4254C57.6481 13.6589 57.5263 13.8641 57.3553 14.0412C57.1842 14.2163 56.973 14.3531 56.7214 14.4517C56.4699 14.5483 56.1871 14.5966 55.8732 14.5966ZM59.589 11.7109V14.5H58.8766V9.86364H59.5648V10.5881H59.6252C59.7338 10.3526 59.8989 10.1635 60.1202 10.0206C60.3416 9.87571 60.6273 9.80327 60.9775 9.80327C61.2914 9.80327 61.5661 9.86766 61.8015 9.99645C62.0369 10.1232 62.2201 10.3164 62.3509 10.576C62.4817 10.8336 62.5471 11.1596 62.5471 11.554V14.5H61.8347V11.6023C61.8347 11.238 61.7401 10.9543 61.551 10.7511C61.3618 10.5458 61.1022 10.4432 60.7722 10.4432C60.5448 10.4432 60.3416 10.4925 60.1625 10.5911C59.9854 10.6897 59.8455 10.8336 59.7429 11.0227C59.6403 11.2119 59.589 11.4413 59.589 11.7109ZM68.1229 14.5966C67.7044 14.5966 67.3371 14.497 67.0212 14.2978C66.7073 14.0985 66.4618 13.8198 66.2847 13.4616C66.1096 13.1035 66.0221 12.6849 66.0221 12.206C66.0221 11.723 66.1096 11.3014 66.2847 10.9412C66.4618 10.581 66.7073 10.3013 67.0212 10.1021C67.3371 9.90288 67.7044 9.80327 68.1229 9.80327C68.5415 9.80327 68.9077 9.90288 69.2216 10.1021C69.5376 10.3013 69.7831 10.581 69.9581 10.9412C70.1352 11.3014 70.2238 11.723 70.2238 12.206C70.2238 12.6849 70.1352 13.1035 69.9581 13.4616C69.7831 13.8198 69.5376 14.0985 69.2216 14.2978C68.9077 14.497 68.5415 14.5966 68.1229 14.5966ZM68.1229 13.9567C68.4409 13.9567 68.7025 13.8752 68.9077 13.7122C69.113 13.5492 69.2649 13.3349 69.3635 13.0692C69.4621 12.8036 69.5114 12.5159 69.5114 12.206C69.5114 11.8961 69.4621 11.6073 69.3635 11.3397C69.2649 11.072 69.113 10.8557 68.9077 10.6907C68.7025 10.5257 68.4409 10.4432 68.1229 10.4432C67.805 10.4432 67.5434 10.5257 67.3381 10.6907C67.1329 10.8557 66.9809 11.072 66.8823 11.3397C66.7837 11.6073 66.7344 11.8961 66.7344 12.206C66.7344 12.5159 66.7837 12.8036 66.8823 13.0692C66.9809 13.3349 67.1329 13.5492 67.3381 13.7122C67.5434 13.8752 67.805 13.9567 68.1229 13.9567ZM72.0235 11.7109V14.5H71.3112V9.86364H71.9994V10.5881H72.0597C72.1684 10.3526 72.3334 10.1635 72.5548 10.0206C72.7761 9.87571 73.0619 9.80327 73.412 9.80327C73.7259 9.80327 74.0006 9.86766 74.2361 9.99645C74.4715 10.1232 74.6546 10.3164 74.7854 10.576C74.9162 10.8336 74.9816 11.1596 74.9816 11.554V14.5H74.2693V11.6023C74.2693 11.238 74.1747 10.9543 73.9855 10.7511C73.7964 10.5458 73.5368 10.4432 73.2068 10.4432C72.9794 10.4432 72.7761 10.4925 72.597 10.5911C72.42 10.6897 72.2801 10.8336 72.1775 11.0227C72.0748 11.2119 72.0235 11.4413 72.0235 11.7109Z" fill="white"/>
<path d="M39.5412 17.7727H41.3807L45.706 28.3374H45.8551L50.1804 17.7727H52.0199V30.5H50.5781V20.8303H50.4538L46.4766 30.5H45.0845L41.1072 20.8303H40.983V30.5H39.5412V17.7727ZM58.539 30.6989C57.6773 30.6989 56.9212 30.4938 56.2707 30.0836C55.6244 29.6735 55.119 29.0997 54.7544 28.3622C54.394 27.6248 54.2137 26.763 54.2137 25.777C54.2137 24.7827 54.394 23.9147 54.7544 23.1731C55.119 22.4315 55.6244 21.8556 56.2707 21.4455C56.9212 21.0353 57.6773 20.8303 58.539 20.8303C59.4008 20.8303 60.1548 21.0353 60.8011 21.4455C61.4515 21.8556 61.957 22.4315 62.3174 23.1731C62.682 23.9147 62.8643 24.7827 62.8643 25.777C62.8643 26.763 62.682 27.6248 62.3174 28.3622C61.957 29.0997 61.4515 29.6735 60.8011 30.0836C60.1548 30.4938 59.4008 30.6989 58.539 30.6989ZM58.539 29.3814C59.1936 29.3814 59.7322 29.2136 60.1548 28.878C60.5774 28.5424 60.8902 28.1012 61.0932 27.5543C61.2962 27.0075 61.3977 26.415 61.3977 25.777C61.3977 25.139 61.2962 24.5444 61.0932 23.9934C60.8902 23.4424 60.5774 22.997 60.1548 22.6573C59.7322 22.3176 59.1936 22.1477 58.539 22.1477C57.8844 22.1477 57.3458 22.3176 56.9233 22.6573C56.5007 22.997 56.1879 23.4424 55.9849 23.9934C55.7819 24.5444 55.6804 25.139 55.6804 25.777C55.6804 26.415 55.7819 27.0075 55.9849 27.5543C56.1879 28.1012 56.5007 28.5424 56.9233 28.878C57.3458 29.2136 57.8844 29.3814 58.539 29.3814ZM68.7309 30.6989C67.8692 30.6989 67.1131 30.4938 66.4626 30.0836C65.8163 29.6735 65.3109 29.0997 64.9463 28.3622C64.5858 27.6248 64.4056 26.763 64.4056 25.777C64.4056 24.7827 64.5858 23.9147 64.9463 23.1731C65.3109 22.4315 65.8163 21.8556 66.4626 21.4455C67.1131 21.0353 67.8692 20.8303 68.7309 20.8303C69.5927 20.8303 70.3467 21.0353 70.993 21.4455C71.6434 21.8556 72.1489 22.4315 72.5093 23.1731C72.8739 23.9147 73.0562 24.7827 73.0562 25.777C73.0562 26.763 72.8739 27.6248 72.5093 28.3622C72.1489 29.0997 71.6434 29.6735 70.993 30.0836C70.3467 30.4938 69.5927 30.6989 68.7309 30.6989ZM68.7309 29.3814C69.3855 29.3814 69.9241 29.2136 70.3467 28.878C70.7693 28.5424 71.0821 28.1012 71.2851 27.5543C71.4881 27.0075 71.5896 26.415 71.5896 25.777C71.5896 25.139 71.4881 24.5444 71.2851 23.9934C71.0821 23.4424 70.7693 22.997 70.3467 22.6573C69.9241 22.3176 69.3855 22.1477 68.7309 22.1477C68.0763 22.1477 67.5377 22.3176 67.1151 22.6573C66.6926 22.997 66.3798 23.4424 66.1768 23.9934C65.9738 24.5444 65.8722 25.139 65.8722 25.777C65.8722 26.415 65.9738 27.0075 66.1768 27.5543C66.3798 28.1012 66.6926 28.5424 67.1151 28.878C67.5377 29.2136 68.0763 29.3814 68.7309 29.3814ZM76.5116 24.7578V30.5H75.045V20.9545H76.4619V22.446H76.5862C76.8099 21.9613 77.1496 21.5719 77.6053 21.2777C78.0611 20.9794 78.6494 20.8303 79.3703 20.8303C80.0166 20.8303 80.5821 20.9628 81.0668 21.228C81.5515 21.489 81.9285 21.8867 82.1978 22.4212C82.4671 22.9515 82.6018 23.6226 82.6018 24.4347V30.5H81.1352V24.5341C81.1352 23.7842 80.9404 23.2 80.551 22.7816C80.1616 22.359 79.6271 22.1477 78.9477 22.1477C78.4795 22.1477 78.0611 22.2492 77.6923 22.4522C77.3278 22.6552 77.0398 22.9515 76.8285 23.3409C76.6172 23.7303 76.5116 24.2027 76.5116 24.7578ZM89.9025 30.5V17.7727H97.5339V19.1399H91.4437V23.4403H96.9622V24.8075H91.4437V30.5H89.9025ZM99.9235 17.7727H101.763L106.088 28.3374H106.237L110.563 17.7727H112.402V30.5H110.96V20.8303H110.836L106.859 30.5H105.467L101.49 20.8303H101.365V30.5H99.9235V17.7727Z" fill="white"/>
<rect x="0.5" y="0.5" width="123" height="39" rx="4.5" stroke="#A6A6A6"/>
<defs>
<clipPath id="clip0_101_7998">
<rect width="24" height="24" fill="white" transform="translate(8 8)"/>
</clipPath>
</defs>
</svg>

<svg xmlns="http://www.w3.org/2000/svg" width="124" height="40" fill="none" viewBox="0 0 124 40">
  <rect width="123" height="39" x=".5" y=".5" fill="#000" rx="4.5"/>
  <rect width="123" height="39" x=".5" y=".5" stroke="#A6A6A6" rx="4.5"/>
  <g clip-path="url(#a)">
    <path fill="#FE1A86" d="M29.278 31.23H10.747c-2.395 0-3.582-2.643-1.877-4.172l9.321-8.367 9.182-8.488c1.68-1.554 4.58-.47 4.58 1.709v16.883c0 1.346-1.194 2.435-2.675 2.435Z"/>
    <path fill="#0000DA" d="M29.413 31.284H10.608c-1.432 0-2.594-1.061-2.594-2.366V11.79c0-2.118 2.814-3.166 4.446-1.66l9.316 8.614 9.46 8.489c1.652 1.485.498 4.05-1.823 4.05Z" opacity=".85"/>
  </g>
  <path fill="#fff" d="M39.749 14.5V8.318h.748v5.518h2.874v.664h-3.622Zm4.684 0V9.864h.713V14.5h-.713Zm.362-5.41a.506.506 0 0 1-.359-.141.456.456 0 0 1-.148-.341c0-.133.05-.247.148-.341.1-.095.22-.142.36-.142.138 0 .257.047.356.142.1.094.15.208.15.341 0 .133-.05.246-.15.341a.496.496 0 0 1-.357.142Zm4.94 1.812-.64.181c-.04-.107-.1-.21-.179-.31a.865.865 0 0 0-.313-.254 1.14 1.14 0 0 0-.51-.1c-.284 0-.52.065-.71.196-.187.129-.28.293-.28.492a.51.51 0 0 0 .192.42c.13.102.33.188.604.256l.688.17c.415.1.724.254.927.461.203.206.305.47.305.794 0 .266-.077.503-.23.713-.15.209-.362.374-.633.495a2.33 2.33 0 0 1-.948.18c-.473 0-.864-.102-1.174-.307-.31-.205-.506-.505-.589-.9l.676-.169c.065.25.186.437.365.562.182.124.418.187.71.187.332 0 .595-.07.79-.211.198-.143.296-.314.296-.514a.54.54 0 0 0-.169-.404c-.112-.11-.285-.193-.519-.248l-.773-.18c-.424-.101-.736-.257-.935-.469a1.133 1.133 0 0 1-.296-.8c0-.261.073-.493.22-.694a1.5 1.5 0 0 1 .607-.474 2.13 2.13 0 0 1 .875-.172c.46 0 .82.1 1.081.302.264.201.45.467.561.797Zm3.173-1.038v.603h-2.403v-.603h2.403Zm-1.703-1.111h.712v4.419c0 .201.03.352.088.453.06.098.137.165.23.199a.92.92 0 0 0 .298.048c.079 0 .143-.004.194-.012l.12-.024.145.64a1.491 1.491 0 0 1-.531.085c-.201 0-.399-.044-.592-.13a1.177 1.177 0 0 1-.477-.396c-.125-.177-.187-.4-.187-.67V8.753Zm4.668 5.844c-.447 0-.832-.099-1.156-.296a1.99 1.99 0 0 1-.745-.833c-.174-.358-.26-.775-.26-1.25s.086-.893.26-1.256c.175-.364.418-.648.73-.85.314-.206.68-.309 1.099-.309.241 0 .48.04.715.121.236.08.45.211.643.392.193.18.347.417.462.713.115.296.172.66.172 1.092v.302h-3.574v-.616h2.85a1.52 1.52 0 0 0-.157-.7 1.183 1.183 0 0 0-.441-.486 1.234 1.234 0 0 0-.67-.178c-.284 0-.53.07-.737.212a1.39 1.39 0 0 0-.474.543c-.11.223-.166.463-.166.718v.41c0 .35.06.648.181.891.123.242.293.426.51.553.218.124.47.187.758.187.187 0 .356-.027.507-.079.153-.054.285-.135.396-.241.11-.109.196-.244.256-.405l.689.193a1.526 1.526 0 0 1-.366.616 1.78 1.78 0 0 1-.634.41 2.35 2.35 0 0 1-.848.146Zm3.716-2.886V14.5h-.712V9.864h.688v.724h.06a1.33 1.33 0 0 1 .495-.567c.222-.145.507-.218.858-.218.313 0 .588.065.823.193.236.127.42.32.55.58.13.258.196.584.196.978V14.5h-.712v-2.898c0-.364-.095-.648-.284-.85-.19-.206-.449-.309-.779-.309-.227 0-.43.05-.61.148a1.058 1.058 0 0 0-.42.432 1.43 1.43 0 0 0-.153.688Zm8.534 2.886c-.419 0-.786-.1-1.102-.3a2.018 2.018 0 0 1-.736-.835c-.175-.358-.263-.777-.263-1.256 0-.483.088-.905.263-1.265.177-.36.422-.64.736-.839.316-.2.683-.299 1.102-.299.418 0 .785.1 1.099.3.316.198.561.478.736.838.177.36.266.782.266 1.265 0 .479-.089.898-.266 1.256-.175.358-.42.636-.736.836a2.01 2.01 0 0 1-1.1.299Zm0-.64c.318 0 .58-.082.785-.245a1.44 1.44 0 0 0 .456-.643 2.47 2.47 0 0 0 .147-.863c0-.31-.049-.599-.147-.866a1.46 1.46 0 0 0-.456-.65c-.206-.164-.467-.247-.785-.247s-.58.083-.785.248a1.46 1.46 0 0 0-.456.649 2.487 2.487 0 0 0-.148.866c0 .31.05.598.148.863.099.266.25.48.456.643.205.163.467.245.785.245Zm3.9-2.246V14.5h-.712V9.864H72v.724h.06c.11-.235.274-.424.496-.567.221-.145.507-.218.857-.218.314 0 .589.065.824.193a1.3 1.3 0 0 1 .55.58c.13.258.196.584.196.978V14.5h-.713v-2.898c0-.364-.094-.648-.284-.85-.189-.206-.448-.309-.778-.309-.228 0-.43.05-.61.148a1.059 1.059 0 0 0-.42.432 1.43 1.43 0 0 0-.154.688Zm-32.482 6.062h1.84l4.325 10.564h.15l4.324-10.564h1.84V30.5h-1.442v-9.67h-.124l-3.977 9.67h-1.392l-3.978-9.67h-.124v9.67h-1.442V17.773ZM58.54 30.699c-.862 0-1.618-.205-2.268-.615-.647-.41-1.152-.984-1.517-1.722-.36-.737-.54-1.599-.54-2.585 0-.994.18-1.862.54-2.604.365-.741.87-1.317 1.517-1.727.65-.41 1.406-.616 2.268-.616.862 0 1.616.205 2.262.616.65.41 1.156.985 1.516 1.727.365.742.547 1.61.547 2.604 0 .986-.182 1.848-.547 2.585-.36.738-.865 1.312-1.516 1.722-.646.41-1.4.615-2.262.615Zm0-1.318c.655 0 1.193-.167 1.616-.503.422-.336.735-.777.938-1.324a5.063 5.063 0 0 0 .305-1.777 5.12 5.12 0 0 0-.305-1.784 3.006 3.006 0 0 0-.938-1.336c-.423-.34-.961-.51-1.616-.51-.655 0-1.193.17-1.616.51-.422.34-.735.785-.938 1.336a5.12 5.12 0 0 0-.305 1.784c0 .638.102 1.23.305 1.777.203.547.516.988.938 1.324.423.336.961.503 1.616.503ZM68.731 30.7c-.862 0-1.618-.205-2.268-.615-.647-.41-1.152-.984-1.517-1.722-.36-.737-.54-1.599-.54-2.585 0-.994.18-1.862.54-2.604.365-.741.87-1.317 1.517-1.727.65-.41 1.406-.616 2.268-.616.862 0 1.616.205 2.262.616.65.41 1.156.985 1.516 1.727.365.742.547 1.61.547 2.604 0 .986-.182 1.848-.547 2.585-.36.738-.866 1.312-1.516 1.722-.646.41-1.4.615-2.262.615Zm0-1.318c.654 0 1.193-.167 1.616-.503.422-.336.735-.777.938-1.324a5.063 5.063 0 0 0 .305-1.777 5.12 5.12 0 0 0-.305-1.784 3.006 3.006 0 0 0-.938-1.336c-.423-.34-.962-.51-1.616-.51-.655 0-1.193.17-1.616.51-.422.34-.735.785-.938 1.336a5.12 5.12 0 0 0-.305 1.784c0 .638.102 1.23.305 1.777.203.547.516.988.938 1.324.423.336.961.503 1.616.503Zm7.78-4.623V30.5h-1.466v-9.546h1.417v1.492h.124a2.726 2.726 0 0 1 1.02-1.168c.455-.299 1.043-.448 1.764-.448.647 0 1.212.133 1.697.398.485.261.862.659 1.13 1.193.27.53.405 1.202.405 2.014V30.5h-1.467v-5.966c0-.75-.195-1.334-.584-1.752-.39-.423-.924-.634-1.603-.634a2.56 2.56 0 0 0-1.256.304 2.18 2.18 0 0 0-.863.889c-.212.39-.317.862-.317 1.417ZM89.904 30.5V17.773h7.63v1.367h-6.09v4.3h5.52v1.367h-5.52V30.5h-1.54Zm10.02-12.727h1.84l4.325 10.564h.149l4.326-10.564h1.839V30.5h-1.442v-9.67h-.124l-3.977 9.67h-1.392l-3.977-9.67h-.125v9.67h-1.441V17.773Z"/>
  <defs>
    <clipPath id="a">
      <path fill="#fff" d="M8 8h24v24H8z"/>
    </clipPath>
  </defs>
</svg>
